!!!OTL: 2162. Sterben.
!!!ODT: 1871
!!!ARE: Europa, Mitteleuropa, Deutschland, Hessen, Battenberg, Nennertehausen
!!!SCT: E2162
!!!TXL: @@DE
!!!YEM: Copyright 1995, estate of Helmut Schaffrath.
**kern	**text
*ICvox	*
!! Mixed meters:  3/4; 4/4
*M3/4	*
*k[b-]	*
*F:	*
!LO:TX:a:t=	!
!LO:TX:a:t=Nennertehauſen bei Battenberg (Heſſiſch) 1871.	!
{8f	Ster-
8g	-ben
=1	=1
4.a	iſt
8f	ein
12fL	har-
12gJ	.
12a	-te
=2	=2
(4a	Buß,
4g;)}	.
{8f	weil
8g	ich
=3	=3
4.a	weiß
8f	daß ich
12fL	ſter-
12gJ	.
12a	-ben
=4	=4
(4a	muß,
4g;)}	.
{8f	und
8g	ein
=5	=5
8aL	Rös-
8ccJ	.
4cc	-lein
!LO:TUP:a	!
12b-L	ro-
12ccJ	.
12dd	-ſen-
=6	=6
2cc	-roth,
12ffL	ja
12ee	.
12ddJ	.
=7	=7
2cc}	roth,
{8cc	pflan-
8ff	-ʒet
=8	=8
*M4/4	*
*met(c|)	*
4.cc	mir
8a	nach
(8cc	mei-
8b-	.
8a)	.
16gL	-nem
16b-J	.
=9	=9
2a	Tod.
4r}	.
==	==
!!!AGN: geistlich, Moral - Lied, Tod
!!!ONB: ESAC (Essen Associative Code) Database: ERK3
!!!AMT: irregular
!!!AIN: vox
!!!EED: Helmut Schaffrath
!!!EEV: 1.0
!!!GTL: 6. Lieder von den Letzten Dinen: Tod, Begraebniss, Auferstehung, Weltgericht, ewige Seligkeit.
!!!URL-scan: https://rosdok.uni-rostock.de/mcrviewer/recordIdentifier/rosdok_ppn745177999/iview2/phys_0862.iview2?x=188.9681574111819&y=841.3128530695103&scale=0.7014306698522895&rotation=0&layout=singlePageLayout
!!!ENC: Anna Maria Matuszewska
!!!EEV: 2025/14/01
*-	*-
